X: 11
T:Billy in the Lowground
M:4/4
L:1/8
Q:90
C:Traditional
R:Reel
K:C
CA,|:"C"G,A,CD EGAB|cBcd cAGc|"Am"ABAG EGAB|cAGE DCCA,|!
"C"G,A,CD EGAB|cBcd cAGB|"Am"ABAG EGAB|"G"cAGE DC C2:|!
"C"eg2eg2 eg|afed cAG2|"Am"ea2ga2 eg|agab ag e2|!
"C"eg2eg2 eg|aged cAGB|"Am"ABAG EGAB|"G"cAGE "C"DC C2|]
